ix/designtools_twotone.svg

<svg viewBox="0 0 24 24" fill="none" xmlns="http://www.w3.org/2000/svg" height="1em" width="1em">
  <path d="M10.4293 17.6198C10.4293 18.7198 10.0093 19.7698 9.2193 20.5698C8.6093 21.1798 7.7793 21.5998 6.7893 21.7298L4.3293 21.9998C2.9893 22.1498 1.8393 21.0098 1.9993 19.6498L2.2693 17.1898C2.5093 14.9998 4.3393 13.5998 6.2793 13.5598C6.4793 13.5498 6.6893 13.5598 6.8793 13.5698C7.7293 13.6798 8.5593 14.0698 9.2393 14.7598C9.9093 15.4298 10.2893 16.2098 10.3993 17.0498C10.4093 17.2398 10.4293 17.4298 10.4293 17.6198Z" stroke="#292D32" stroke-width="1.5" stroke-linecap="round" stroke-linejoin="round"/>
  <g opacity="0.4">
    <path d="M21.8095 3.93988C20.2695 7.77988 16.4095 12.9999 13.1795 15.5899L11.2095 17.1699C10.9595 17.3499 10.7095 17.5099 10.4295 17.6199C10.4295 17.4399 10.4195 17.2399 10.3895 17.0499C10.2795 16.2099 9.89953 15.4299 9.22953 14.7599C8.54953 14.0799 7.71953 13.6799 6.86953 13.5699C6.66953 13.5599 6.46953 13.5399 6.26953 13.5599C6.37953 13.2499 6.54953 12.9599 6.75953 12.7199L8.31953 10.7499C10.8995 7.51988 16.1395 3.63988 19.9695 2.10988C20.5595 1.88988 21.1295 2.04988 21.4895 2.41988C21.8695 2.78988 22.0495 3.35988 21.8095 3.93988Z" stroke="#292D32" stroke-width="1.5" stroke-linecap="round" stroke-linejoin="round"/>
    <path d="M14.2398 14.4702C14.2398 11.8602 12.1198 9.74023 9.50977 9.74023" stroke="#292D32" stroke-width="1.5" stroke-linecap="round" stroke-linejoin="round"/>
  </g>
  <path d="M20.1207 12.73L20.8607 13.46C22.3507 14.95 22.3507 16.42 20.8607 17.91L17.9007 20.87C16.4307 22.34 14.9407 22.34 13.4707 20.87" stroke="#292D32" stroke-width="1.5" stroke-linecap="round"/>
  <path d="M3.11031 10.5101C1.64031 9.02006 1.64031 7.55006 3.11031 6.06006L6.07031 3.10006C7.54031 1.63006 9.03031 1.63006 10.5003 3.10006L11.2403 3.84006" stroke="#292D32" stroke-width="1.5" stroke-linecap="round"/>
  <path opacity="0.4" d="M11.2508 3.8501L7.55078 7.5501" stroke="#292D32" stroke-width="1.5" stroke-linecap="round"/>
  <path opacity="0.4" d="M20.1202 12.73L17.1602 15.68" stroke="#292D32" stroke-width="1.5" stroke-linecap="round"/>
</svg>

<svg viewBox="0 0 24 24" fill="none" xmlns="http://www.w3.org/2000/svg" height="1em" width="1em">
  <path d="M10.43 17.62c0 1.1-.42 2.15-1.21 2.95-.61.61-1.44 1.03-2.43 1.16L4.33 22c-1.34.15-2.49-.99-2.33-2.35l.27-2.46c.24-2.19 2.07-3.59 4.01-3.63.2-.01.41 0 .6.01.85.11 1.68.5 2.36 1.19.67.67 1.05 1.45 1.16 2.29.01.19.03.38.03.57Z" stroke="#292D32" stroke-width="1.5" stroke-linecap="round" stroke-linejoin="round"/>
  <g opacity=".4" stroke="#292D32" stroke-width="1.5" stroke-linecap="round" stroke-linejoin="round">
    <path d="M21.81 3.94c-1.54 3.84-5.4 9.06-8.63 11.65l-1.97 1.58c-.25.18-.5.34-.78.45 0-.18-.01-.38-.04-.57-.11-.84-.49-1.62-1.16-2.29-.68-.68-1.51-1.08-2.36-1.19-.2-.01-.4-.03-.6-.01.11-.31.28-.6.49-.84l1.56-1.97c2.58-3.23 7.82-7.11 11.65-8.64.59-.22 1.16-.06 1.52.31.38.37.56.94.32 1.52Z"/>
    <path d="M14.24 14.47c0-2.61-2.12-4.73-4.73-4.73"/>
  </g>
  <path d="m20.12 12.73.74.73c1.49 1.49 1.49 2.96 0 4.45l-2.96 2.96c-1.47 1.47-2.96 1.47-4.43 0M3.11 10.51c-1.47-1.49-1.47-2.96 0-4.45L6.07 3.1c1.47-1.47 2.96-1.47 4.43 0l.74.74" stroke="#292D32" stroke-width="1.5" stroke-linecap="round"/>
  <path opacity=".4" d="m11.25 3.85-3.7 3.7m12.57 5.18-2.96 2.95" stroke="#292D32" stroke-width="1.5" stroke-linecap="round"/>
</svg>
